pro/src/icons/stroke-valid.svg

<svg width="48" height="48" viewBox="0 0 48 48" fill="none" xmlns="http://www.w3.org/2000/svg">
<path id="icon" fill="currentColor" fill-rule="evenodd" clip-rule="evenodd" d="M24 43.0909C13.4545 43.0909 4.90909 34.5455 4.90909 24C4.90909 20.7523 5.71845 17.6905 7.15309 15.021C7.40265 14.5566 7.22851 13.9778 6.76414 13.7283C6.29977 13.4787 5.72101 13.6529 5.47145 14.1172C3.88973 17.0604 3 20.4322 3 24C3 35.5999 12.4001 45 24 45C35.5999 45 45 35.5999 45 24C45 12.4001 35.5999 3 24 3C20.3809 3 16.9697 3.92015 13.9891 5.54046C13.5259 5.79225 13.3546 6.37183 13.6064 6.835C13.8582 7.29816 14.4377 7.46952 14.9009 7.21773C17.6094 5.7453 20.7082 4.90909 24 4.90909C34.5455 4.90909 43.0909 13.4545 43.0909 24C43.0909 34.5455 34.5455 43.0909 24 43.0909ZM34.1927 17.7781C34.5914 18.1602 34.6048 18.7933 34.2227 19.192L32.9426 20.5274L32.9379 20.5323L22.0523 31.8866L22.0521 31.8868C21.2684 32.7044 19.9768 32.7044 19.1932 31.8866L19.1907 31.884L13.7755 26.1921C13.3948 25.7919 13.4106 25.159 13.8107 24.7783C14.2109 24.3976 14.8438 24.4134 15.2245 24.8135L20.6228 30.4877L31.4988 19.1435L31.4988 19.1435L31.5033 19.1388L32.7788 17.808C33.161 17.4093 33.794 17.3959 34.1927 17.7781Z"/>
</svg>

<svg xmlns="http://www.w3.org/2000/svg" width="48" height="48" fill="none"><path id="icon" fill="currentColor" fill-rule="evenodd" d="M24 43.09C13.455 43.09 4.91 34.546 4.91 24c0-3.248.808-6.31 2.243-8.979a.955.955 0 0 0-1.682-.904A20.8 20.8 0 0 0 3 24c0 11.6 9.4 21 21 21s21-9.4 21-21S35.6 3 24 3c-3.62 0-7.03.92-10.01 2.54a.954.954 0 1 0 .91 1.678A19 19 0 0 1 24 4.909c10.545 0 19.09 8.546 19.09 19.091S34.546 43.09 24 43.09m10.193-25.312a1 1 0 0 1 .03 1.414l-1.28 1.335-.005.005-10.886 11.355a1.973 1.973 0 0 1-2.859 0l-.002-.003-5.415-5.692a1 1 0 0 1 1.449-1.378l5.398 5.674 10.876-11.344.004-.005 1.276-1.331a1 1 0 0 1 1.414-.03" clip-rule="evenodd"/></svg>
